X: 1924
T: Third of January
B: australian traditional tunes wiki
M:2/4
L:1/8
R: Set Tune
Q: 1/4=100
K:D
V:1 
|:"D"D2FA|D2FA|Dd c/B/A/G/|"A7"FE EA|"D"D2FA|D2FA|"G"BB/B/ Be/e/|1"D"ed dA:|2"D"ed d=c||
"G"B2BA|B2B<c|B>c BA|B2Bc|d>e dB|"C"e2"G"dB|"G"d>e dB|"D7"Ac BA|
"C"G>A GE|"G"GA BA|"C"G>A GB|"G"G2GB|dd/d/ ef|"C"g2fe|"G"d>B "D7"AB|"G"G2-G2||
% abcbook-tune_id 6342d5be4c61a3e26e7304f0


% abcbook-boost 0
% abcbook-tablature 
% abcbook-transpose 
% abcbook-lastupdated 1665324488211
% abcbook-soundfonts 
% abcbook-repeats 1
% NFF Book 2016

